src/assets/images/target.svg

<svg width="81" height="76" viewBox="0 0 81 76" fill="none" xmlns="http://www.w3.org/2000/svg">
<path d="M80.1575 42.41L77.7676 37.41L79.7676 32.55C79.825 32.4104 79.8471 32.2587 79.832 32.1084C79.817 31.9581 79.7652 31.8137 79.6812 31.6882C79.5971 31.5627 79.4835 31.4599 79.3503 31.3887C79.2171 31.3175 79.0685 31.2802 78.9175 31.28H68.8276L65.5876 35.6999H40.8875C40.5654 35.036 40.0363 34.495 39.3796 34.1583C38.723 33.8217 37.9746 33.7078 37.2476 33.8339C36.5205 33.9599 35.8541 34.3191 35.3491 34.8572C34.8442 35.3953 34.5279 36.083 34.4482 36.8166C34.3685 37.5502 34.5298 38.2899 34.9075 38.9238C35.2851 39.5578 35.8587 40.0517 36.5417 40.3309C37.2248 40.6102 37.98 40.6597 38.6936 40.4719C39.4072 40.2841 40.0405 39.8693 40.4976 39.29H65.4976L68.2375 43.74H79.2375C79.4032 43.7614 79.5715 43.7368 79.7241 43.6689C79.8767 43.6011 80.0075 43.4926 80.1025 43.3552C80.1975 43.2179 80.253 43.057 80.2627 42.8903C80.2724 42.7235 80.2359 42.5574 80.1575 42.41ZM70.3176 40.15L68.7175 37.55L70.7175 34.88H74.9575L73.8674 37.5L75.1274 40.14L70.3176 40.15ZM37.4976 26.4399C39.5864 26.4341 41.6341 27.0199 43.4038 28.1295C45.1735 29.2391 46.5929 30.8272 47.4976 32.71H51.3774C50.2436 29.434 47.9857 26.6659 45.0044 24.8971C42.0231 23.1282 38.5114 22.4731 35.0928 23.048C31.6742 23.6229 28.5698 25.3906 26.3311 28.0373C24.0923 30.684 22.8638 34.0384 22.8638 37.505C22.8638 40.9716 24.0923 44.3259 26.3311 46.9726C28.5698 49.6193 31.6742 51.3871 35.0928 51.962C38.5114 52.5369 42.0231 51.8818 45.0044 50.1129C47.9857 48.344 50.2436 45.5759 51.3774 42.3H47.4976C46.6404 44.0793 45.3224 45.5965 43.6807 46.6942C42.0389 47.7919 40.1331 48.43 38.1614 48.5421C36.1896 48.6542 34.2239 48.2364 32.4683 47.3319C30.7126 46.4274 29.2311 45.0694 28.1777 43.3988C27.1244 41.7282 26.5378 39.8061 26.4785 37.832C26.4192 35.858 26.8894 33.9041 27.8406 32.1733C28.7917 30.4425 30.189 28.998 31.8872 27.9897C33.5854 26.9815 35.5226 26.4463 37.4976 26.4399ZM59.8474 32.71H63.5276C62.3314 26.2157 58.7508 20.4032 53.489 16.4132C48.2272 12.4233 41.664 10.544 35.0879 11.1446C28.5118 11.7452 22.3978 14.7822 17.9458 19.6593C13.4938 24.5364 11.0254 30.9015 11.0254 37.505C11.0254 44.1085 13.4938 50.4736 17.9458 55.3507C22.3978 60.2278 28.5118 63.2646 35.0879 63.8652C41.664 64.4658 48.2272 62.5867 53.489 58.5968C58.7508 54.6068 62.3314 48.7943 63.5276 42.3H59.8474C58.6632 47.8226 55.4774 52.7115 50.9036 56.0253C46.3297 59.339 40.6916 60.843 35.075 60.2476C29.4583 59.6521 24.2606 56.9994 20.4832 52.8004C16.7057 48.6014 14.616 43.1531 14.616 37.505C14.616 31.8569 16.7057 26.4086 20.4832 22.2096C24.2606 18.0106 29.4583 15.3579 35.075 14.7624C40.6916 14.167 46.3297 15.671 50.9036 18.9847C55.4774 22.2984 58.6632 27.1874 59.8474 32.71ZM37.4976 71.41C31.1868 71.4129 25.0004 69.6546 19.6345 66.3331C14.2686 63.0116 9.93609 58.2587 7.12427 52.609C4.31245 46.9593 3.13295 40.6371 3.71851 34.3536C4.30406 28.0701 6.6314 22.0746 10.4387 17.0417C14.246 12.0089 19.3823 8.13841 25.2695 5.86559C31.1568 3.59278 37.5614 3.00789 43.7629 4.17675C49.9645 5.34561 55.7169 8.22182 60.3728 12.4818C65.0287 16.7418 68.4034 22.2165 70.1174 28.29H73.8474C71.5988 19.4303 66.1919 11.697 58.6426 6.54345C51.0933 1.38995 41.9217 -0.828839 32.8516 0.304192C23.7815 1.43722 15.4375 5.84402 9.38794 12.6963C3.3384 19.5485 0 28.3744 0 37.515C0 46.6556 3.3384 55.4815 9.38794 62.3337C15.4375 69.186 23.7815 73.5928 32.8516 74.7258C41.9217 75.8589 51.0933 73.6401 58.6426 68.4866C66.1919 63.3331 71.5988 55.5997 73.8474 46.74H70.1174C68.0929 53.8344 63.8159 60.0779 57.9316 64.5281C52.0473 68.9783 44.8752 71.3938 37.4976 71.41Z" fill="#5C5C5C"/>
</svg>

<?xml version="1.0" encoding="utf-8"?>
<!-- Generator: Adobe Illustrator 25.4.1, SVG Export Plug-In . SVG Version: 6.00 Build 0)  -->
<svg version="1.1" id="Layer_1" xmlns="http://www.w3.org/2000/svg" xmlns:xlink="http://www.w3.org/1999/xlink" x="0px" y="0px"
	 viewBox="0 0 81 76" style="enable-background:new 0 0 81 76;" xml:space="preserve">
<style type="text/css">
	.st0{fill:#FFFFFF;}
</style>
<path class="st0" d="M80.2,42.4l-2.4-5l2-4.9c0.1-0.1,0.1-0.3,0.1-0.4c0-0.2-0.1-0.3-0.2-0.4c-0.1-0.1-0.2-0.2-0.3-0.3
	c-0.1-0.1-0.3-0.1-0.4-0.1H68.8l-3.2,4.4H40.9c-0.3-0.7-0.9-1.2-1.5-1.5c-0.7-0.3-1.4-0.5-2.1-0.3c-0.7,0.1-1.4,0.5-1.9,1
	c-0.5,0.5-0.8,1.2-0.9,2s0.1,1.5,0.5,2.1c0.4,0.6,1,1.1,1.6,1.4c0.7,0.3,1.4,0.3,2.2,0.1c0.7-0.2,1.3-0.6,1.8-1.2h25l2.7,4.5h11
	c0.2,0,0.3,0,0.5-0.1c0.2-0.1,0.3-0.2,0.4-0.3c0.1-0.1,0.2-0.3,0.2-0.5C80.3,42.7,80.2,42.6,80.2,42.4z M70.3,40.2l-1.6-2.6l2-2.7
	H75l-1.1,2.6l1.3,2.6L70.3,40.2z M37.5,26.4c2.1,0,4.1,0.6,5.9,1.7s3.2,2.7,4.1,4.6h3.9c-1.1-3.3-3.4-6-6.4-7.8
	c-3-1.8-6.5-2.4-9.9-1.8s-6.5,2.3-8.8,5c-2.2,2.6-3.5,6-3.5,9.5c0,3.5,1.2,6.8,3.5,9.5c2.2,2.6,5.3,4.4,8.8,5
	c3.4,0.6,6.9-0.1,9.9-1.8c3-1.8,5.2-4.5,6.4-7.8h-3.9c-0.9,1.8-2.2,3.3-3.8,4.4c-1.6,1.1-3.5,1.7-5.5,1.8c-2,0.1-3.9-0.3-5.7-1.2
	c-1.8-0.9-3.2-2.3-4.3-3.9c-1.1-1.7-1.6-3.6-1.7-5.6c-0.1-2,0.4-3.9,1.4-5.7c1-1.7,2.3-3.2,4-4.2C33.6,27,35.5,26.4,37.5,26.4z
	 M59.8,32.7h3.7c-1.2-6.5-4.8-12.3-10-16.3c-5.3-4-11.8-5.9-18.4-5.3s-12.7,3.6-17.1,8.5S11,30.9,11,37.5s2.5,13,6.9,17.8
	s10.6,7.9,17.1,8.5c6.6,0.6,13.1-1.3,18.4-5.3c5.3-4,8.8-9.8,10-16.3h-3.7c-1.2,5.5-4.4,10.4-8.9,13.7c-4.6,3.3-10.2,4.8-15.8,4.2
	c-5.6-0.6-10.8-3.2-14.6-7.4c-3.8-4.2-5.9-9.6-5.9-15.3s2.1-11.1,5.9-15.3c3.8-4.2,9-6.9,14.6-7.4c5.6-0.6,11.3,0.9,15.8,4.2
	C55.5,22.3,58.7,27.2,59.8,32.7z M37.5,71.4c-6.3,0-12.5-1.8-17.9-5.1C14.3,63,9.9,58.3,7.1,52.6s-4-12-3.4-18.3
	c0.6-6.3,2.9-12.3,6.7-17.3c3.8-5,8.9-8.9,14.8-11.2C31.2,3.6,37.6,3,43.8,4.2c6.2,1.2,12,4,16.6,8.3c4.7,4.3,8,9.7,9.7,15.8h3.7
	c-2.2-8.9-7.7-16.6-15.2-21.7c-7.5-5.2-16.7-7.4-25.8-6.2C23.8,1.4,15.4,5.8,9.4,12.7C3.3,19.5,0,28.4,0,37.5s3.3,18,9.4,24.8
	c6,6.9,14.4,11.3,23.5,12.4c9.1,1.1,18.2-1.1,25.8-6.2c7.5-5.2,13-12.9,15.2-21.7h-3.7c-2,7.1-6.3,13.3-12.2,17.8
	S44.9,71.4,37.5,71.4z"/>
</svg>
